svg/boy_1015y_outline.svg

<?xml version="1.0" encoding="UTF-8" standalone="no"?>
<!-- Created with Inkscape (http://www.inkscape.org/) -->
<svg id="svg8" xmlns:rdf="http://www.w3.org/1999/02/22-rdf-syntax-ns#" xmlns="http://www.w3.org/2000/svg" height="48" viewBox="0 0 12.7 12.7" width="48" version="1.1" xmlns:cc="http://creativecommons.org/ns#" xmlns:dc="http://purl.org/dc/elements/1.1/">
 <title id="title4753">UIO-icon</title>
 <metadata id="metadata5">
  <rdf:RDF>
   <cc:Work rdf:about="">
    <dc:format>image/svg+xml</dc:format>
    <dc:type rdf:resource="http://purl.org/dc/dcmitype/StillImage"/>
    <dc:title>UIO-icon</dc:title>
    <dc:creator>
     <cc:Agent>
      <dc:title>Joaquín Urbano</dc:title>
     </cc:Agent>
    </dc:creator>
    <dc:rights>
     <cc:Agent>
      <dc:title>GPL</dc:title>
     </cc:Agent>
    </dc:rights>
   </cc:Work>
  </rdf:RDF>
 </metadata>
 <path id="text4858" d="m20.012 3c0.029 0.1026 0.066 0.1961 0.109 0.2832l0.002 0.002c0.043 0.0861 0.09 0.1667 0.141 0.2421l0.002 0.002c0.307 0.4553 0.715 0.7535 0.668 1.3672-1.268-0.4767-2.183-0.1876-3.356-0.1504-0.286 0.0091-0.583 0.007-0.91-0.0293 0.194 0.0968 0.376 0.1628 0.553 0.2168 0.902 0.2759 1.605 0.0992 2.402 0.3769-3.323 0.9884-5.228 3.2689-5.619 6.7755-0.086 1.688-0.094 3.381-0.084 5.072l-0.215-0.058c-0.757-0.207-1.014 0.18-0.932 1.404 0.092 1.347 0.555 2.499 1.297 3.228 0.315 0.309 0.415 0.485 0.614 1.073 1.091 3.224 3.087 5.824 5.582 7.267 2.145 1.087 4.458 1.393 7.388 0.004 2.779-1.464 4.283-4.109 5.528-6.959 0.338-0.919 0.417-1.062 0.832-1.5 0.52-0.55 0.764-1.044 1.052-2.127 0.21-0.915 0.785-2.9-0.839-2.412-0.307-2.848 0.057-4.237-0.709-7.1073-0.325-0.9257-0.613-1.4459-1.217-2.2012-0.988-1.2348-2.438-2.1-4.33-2.584-1.011-0.2584-2.537-0.384-4.059-0.3769-0.208 0.001-0.414 0.0097-0.621 0.0156 0.003-0.0014 0.009-0.0024 0.012-0.0039 0.893-0.8038 1.338-0.7686 2.463-1.2012 0.315-0.1214 0.66-0.2621 1.113-0.4902-0.293 0.0944-0.545 0.1501-0.772 0.1856-0.056 0.0087-0.101 0.0096-0.154 0.0156-0.162 0.0183-0.317 0.0304-0.453 0.0273-0.054-0.0012-0.104-0.0062-0.154-0.0097-0.123-0.0089-0.242-0.0178-0.35-0.0352-0.043-0.0069-0.087-0.0141-0.129-0.0215-0.141-0.0253-0.28-0.0468-0.414-0.0644-0.047-0.0062-0.098-0.0083-0.146-0.0118-0.083-0.006-0.168-0.0092-0.256-0.0039-0.061 0.0039-0.13 0.0221-0.196 0.0332-0.083 0.0143-0.164 0.0216-0.257 0.0508-0.158 0.0495-0.33 0.1222-0.526 0.2266-0.232 0.1242-0.493 0.2876-0.801 0.5137-0.283-0.5911-1.155-0.4943-1.796-0.7383-0.006-0.0023-0.012-0.0055-0.018-0.0078-0.078-0.0307-0.154-0.067-0.225-0.1094-0.08-0.0505-0.156-0.1065-0.22-0.1797zm3.873 0.7461c0.068 0.1543-1.167 0.7917-1.151 1.2812 0.009 0.2534 0.528 0.2275 1.125 0.2247 1.446-0.0069 2.896 0.1124 3.856 0.3613 1.797 0.466 3.175 1.299 4.113 2.4883 0.574 0.7273 0.848 1.2295 1.156 2.1214 0.67 2.708 0.621 4.03 0.713 6.545-0.003 0.005-0.021 0.02-0.023 0.025-0.434 0.429-0.533 0.676-0.533 0.676-0.092-1.121-0.016-1.653-0.432-2.063-3.388-3.062-4.408-3.293-6.705-3.478-0.552-0.042-0.969 0.301-0.695 0.658 0.746 0.974 1.045 1.282 1.605 2.094 0.457 0.662 0.264 0.65 0.274 0.752 0.002 0.024-0.059-0.054-0.377-0.287-1.547-1.136-2.706-1.455-4.344-1.92-0.247-0.07-0.484-0.106-0.528-0.079-0.049 0.031-0.016 0.267 0.086 0.477 0.091 0.185 0.527 1.155 0.643 1.588 0.263 0.98 0.069 0.903-0.615 0.295-1.546-1.375-3.041-1.897-4.662-2.469-0.975-0.344-1.251 0.563-1.346 0.736-0.131 0.239-0.879 1.401-1.031 2.383l-0.213 1.1-0.373-0.41c-0.066-1.566-0.095-2.886 0.017-4.586 0.382-3.4684 2.27-5.7016 5.586-6.6096 0.075-0.0205 0.41-0.4547 0.614-0.3281 0.365 0.2275 0.65 0.0001 0.709-0.1153 0.328-0.6437-0.222-0.9507-0.043-1.0859 0.57-0.4307 0.607 0.8699 1.273 0.3418 0.535-0.4241 1.257-0.8168 1.301-0.7168zm2.252 8.6799c0.138 0.004 0.338 0.027 0.603 0.062 1.679 0.224 2.838 0.816 4.645 2.375 0.472 0.408 0.918 0.808 0.992 0.891 0.143 0.16 0.324 1.153 0.416 2.273 0.029 0.357 0.085 0.624 0.125 0.6 0.039-0.024 0.155-0.211 0.258-0.414 0.103-0.204 0.316-0.495 0.472-0.647l0.079-0.076c0.003 0.07 0.002 0.093 0.005 0.164 2.298-0.599 0.368 2.77-0.277 3.785-0.393 0.423-0.467 0.56-0.789 1.446-1.179 2.728-2.593 5.28-5.252 6.701-2.784 1.338-4.98 1.042-7.018-0.004-2.369-1.39-4.266-3.893-5.302-6.998-0.189-0.566-0.285-0.736-0.584-1.033-1.134-1.456-2.032-4.339-0.053-3.86-0.001-0.023-0.001-0.04-0.002-0.064l0.029 0.029c0.23 0.236 0.494 0.535 0.588 0.664l0.17 0.235 0.006-0.479c0.012-1.362 0.511-2.938 1.313-4.144 0.335-0.506 0.425-0.518 1.4-0.174 1.621 0.572 2.997 1.418 4.543 2.793 0.684 0.608 0.713 0.591 0.715-0.424 0.001-0.776-0.135-1.364-0.436-1.885-0.116-0.202-0.158-0.344-0.109-0.375 0.044-0.027 0.281 0.008 0.527 0.078 1.638 0.466 3.082 1.293 4.551 2.608 0.294 0.263 0.556 0.478 0.58 0.478 0.092 0 0.037-0.261-0.227-1.076-0.359-1.11-0.844-1.916-1.662-2.764-0.584-0.605-0.721-0.777-0.306-0.765zm-5.83 5.51c-0.584-0.001-1.057 0.471-1.057 1.054s0.473 1.056 1.057 1.055c0.582 0 1.054-0.472 1.054-1.055 0-0.582-0.472-1.054-1.054-1.054zm7.441 0.179c-0.582 0-1.054 0.473-1.055 1.055 0.001 0.582 0.473 1.054 1.055 1.055 0.582-0.001 1.055-0.473 1.055-1.055s-0.473-1.055-1.055-1.055zm-7.209 7.477c0.032 1.177 1.585 2.121 3.49 2.121 1.904-0.001 3.455-0.945 3.487-2.121-2.731 1.027-4.983 0.842-6.977 0zm-7.092 9.754c-0.775 0-1.369 0.257-1.783 0.771-0.41 0.515-0.615 1.269-0.615 2.262v1.31c0.01 0.955 0.22 1.686 0.631 2.198 0.41 0.511 1.002 0.767 1.777 0.767 0.785 0 1.382-0.26 1.789-0.781s0.609-1.274 0.609-2.258v-1.308c-0.009-0.955-0.218-1.686-0.628-2.194-0.411-0.511-1.005-0.767-1.78-0.767zm-4.8454 0.088l-2.9454 1.054v1.149l1.6856-0.522v5.442h1.4121v-7.123h-0.1523zm15.378 0l-2.945 1.054v1.149l1.686-0.522v5.442h1.41v-7.123h-0.151zm3.088 0.009l-0.41 3.616 1.123 0.279 0.137-0.127c0.208-0.176 0.481-0.266 0.816-0.266 0.365 0 0.645 0.11 0.844 0.325 0.199 0.214 0.299 0.523 0.299 0.927 0 0.42-0.087 0.746-0.26 0.977-0.172 0.228-0.417 0.342-0.736 0.342-0.287 0-0.52-0.082-0.699-0.245-0.176-0.166-0.28-0.397-0.309-0.693h-1.396c0.013 0.404 0.126 0.764 0.337 1.08 0.215 0.316 0.505 0.561 0.874 0.737 0.368 0.172 0.767 0.259 1.197 0.259 0.492 0 0.918-0.1 1.279-0.299 0.362-0.201 0.64-0.482 0.832-0.843 0.195-0.365 0.293-0.777 0.293-1.237 0-0.755-0.192-1.343-0.576-1.763s-0.916-0.631-1.594-0.631c-0.378 0-0.735 0.09-1.07 0.269l0.176-1.529h2.83v-1.178h-3.987zm4.651 0l2.334 4.534v2.58h1.49v-2.58l2.336-4.534h-1.604l-1.478 3.205-1.471-3.205h-1.607zm-18.272 1.045c0.342 0 0.595 0.136 0.754 0.407 0.163 0.267 0.244 0.695 0.244 1.285v1.689c-0.006 0.557-0.087 0.97-0.24 1.24-0.153 0.271-0.403 0.407-0.748 0.407-0.348 0-0.602-0.14-0.762-0.42-0.156-0.284-0.234-0.716-0.234-1.295v-1.729c0.01-0.544 0.094-0.943 0.25-1.197 0.16-0.257 0.404-0.387 0.736-0.387zm26.733 0.686c-0.629 0-1.139 0.157-1.53 0.472-0.387 0.313-0.582 0.703-0.582 1.172 0 0.805 0.63 1.34 1.887 1.604 0.378 0.078 0.651 0.166 0.82 0.267 0.173 0.098 0.26 0.234 0.26 0.407 0 0.166-0.071 0.302-0.211 0.406-0.137 0.101-0.341 0.15-0.611 0.15-0.29 0-0.521-0.065-0.693-0.199-0.173-0.133-0.265-0.327-0.278-0.578h-1.34c0 0.319 0.098 0.618 0.293 0.895 0.196 0.273 0.465 0.49 0.807 0.65 0.345 0.156 0.739 0.234 1.182 0.234 0.654 0 1.19-0.149 1.603-0.445 0.414-0.3 0.619-0.69 0.619-1.172 0-0.674-0.371-1.148-1.117-1.422-0.241-0.088-0.539-0.166-0.891-0.234-0.351-0.072-0.602-0.156-0.752-0.25-0.146-0.098-0.218-0.225-0.218-0.381 0-0.166 0.065-0.303 0.195-0.41 0.13-0.108 0.313-0.16 0.551-0.16 0.277 0 0.481 0.065 0.611 0.199 0.13 0.13 0.195 0.296 0.195 0.498h1.413c0-0.505-0.202-0.915-0.606-1.231-0.4-0.315-0.936-0.472-1.607-0.472zm-23.313 1.767v1.139h2.75v-1.139h-2.75z" transform="scale(.26458)" stroke-width="3.7795" fill="#333"/>
</svg>

<svg width="48" height="48" viewBox="0 0 48 48" fill="none" xmlns="http://www.w3.org/2000/svg">
<path d="M20.0117 3C20.0407 3.1026 20.0777 3.1961 20.1207 3.2832L20.1227 3.2852C20.1657 3.3713 20.2127 3.45189 20.2637 3.52729L20.2657 3.52929C20.5727 3.98459 20.9807 4.28278 20.9337 4.89648C19.6658 4.41978 18.7508 4.70888 17.5778 4.74608C17.2918 4.75518 16.9948 4.75308 16.6678 4.71678C16.8618 4.81358 17.0438 4.87958 17.2208 4.93358C18.1228 5.20947 18.8258 5.03277 19.6228 5.31047C16.2998 6.29886 14.3948 8.57933 14.0038 12.0859C13.9178 13.7739 13.9098 15.4668 13.9198 17.1578L13.7048 17.0998C12.9478 16.8928 12.6908 17.2798 12.7728 18.5038C12.8648 19.8508 13.3278 21.0028 14.0698 21.7318C14.3848 22.0408 14.4848 22.2168 14.6838 22.8048C15.7748 26.0287 17.7708 28.6287 20.2657 30.0717C22.4107 31.1586 24.7237 31.4646 27.6536 30.0757C30.4326 28.6117 31.9366 25.9667 33.1816 23.1167C33.5196 22.1978 33.5986 22.0548 34.0136 21.6168C34.5336 21.0668 34.7776 20.5728 35.0656 19.4898C35.2756 18.5748 35.8505 16.5898 34.2266 17.0778C33.9196 14.2299 34.2836 12.8409 33.5176 9.97061C33.1926 9.04492 32.9046 8.52473 32.3006 7.76944C31.3126 6.53466 29.8626 5.66947 27.9706 5.18547C26.9597 4.92708 25.4337 4.80148 23.9117 4.80858C23.7037 4.80958 23.4977 4.81828 23.2907 4.82418C23.2937 4.82278 23.2997 4.82178 23.3027 4.82028C24.1957 4.01649 24.6407 4.05169 25.7657 3.61909C26.0807 3.49769 26.4257 3.357 26.8787 3.1289C26.5857 3.2233 26.3337 3.279 26.1067 3.3145C26.0507 3.3232 26.0057 3.3241 25.9527 3.3301C25.7907 3.3484 25.6357 3.3605 25.4997 3.3574C25.4457 3.3562 25.3957 3.3512 25.3457 3.3477C25.2227 3.3388 25.1037 3.3299 24.9957 3.3125C24.9527 3.3056 24.9087 3.2984 24.8667 3.291C24.7257 3.2657 24.5867 3.2442 24.4527 3.2266C24.4057 3.2204 24.3547 3.2183 24.3067 3.2148C24.2237 3.2088 24.1387 3.2056 24.0507 3.2109C23.9897 3.2148 23.9207 3.233 23.8547 3.2441C23.7717 3.2584 23.6907 3.2657 23.5977 3.2949C23.4397 3.3444 23.2677 3.41709 23.0717 3.52149C22.8397 3.64569 22.5787 3.80909 22.2707 4.03519C21.9877 3.44409 21.1157 3.54089 20.4747 3.2969C20.4687 3.2946 20.4627 3.2914 20.4567 3.2891C20.3787 3.2584 20.3027 3.2221 20.2317 3.1797C20.1517 3.1292 20.0757 3.0732 20.0117 3ZM23.8847 3.74609C23.9527 3.90039 22.7177 4.53778 22.7337 5.02727C22.7427 5.28067 23.2617 5.25477 23.8587 5.25197C25.3047 5.24507 26.7547 5.36437 27.7147 5.61327C29.5116 6.07926 30.8896 6.91225 31.8276 8.10154C32.4016 8.82883 32.6756 9.33102 32.9836 10.2229C33.6536 12.9309 33.6046 14.2529 33.6966 16.7678C33.6936 16.7728 33.6756 16.7878 33.6736 16.7928C33.2396 17.2218 33.1406 17.4688 33.1406 17.4688C33.0486 16.3478 33.1246 15.8158 32.7086 15.4058C29.3206 12.3439 28.3006 12.1129 26.0037 11.9279C25.4517 11.8859 25.0347 12.2289 25.3087 12.5859C26.0547 13.5599 26.3537 13.8679 26.9137 14.6799C27.3707 15.3418 27.1777 15.3298 27.1877 15.4318C27.1897 15.4558 27.1287 15.3778 26.8107 15.1448C25.2637 14.0089 24.1047 13.6899 22.4667 13.2249C22.2197 13.1549 21.9827 13.1189 21.9387 13.1459C21.8897 13.1769 21.9227 13.4129 22.0247 13.6229C22.1157 13.8079 22.5517 14.7779 22.6677 15.2108C22.9307 16.1908 22.7367 16.1138 22.0527 15.5058C20.5067 14.1309 19.0118 13.6089 17.3908 13.0369C16.4158 12.6929 16.1398 13.5999 16.0448 13.7729C15.9138 14.0119 15.1658 15.1738 15.0138 16.1558L14.8008 17.2558L14.4278 16.8458C14.3618 15.2798 14.3328 13.9599 14.4448 12.2599C14.8268 8.79153 16.7148 6.55836 20.0307 5.65037C20.1057 5.62987 20.4407 5.19567 20.6447 5.32227C21.0097 5.54977 21.2947 5.32237 21.3537 5.20697C21.6817 4.56328 21.1317 4.25628 21.3107 4.12109C21.8807 3.69039 21.9177 4.99098 22.5837 4.46288C23.1187 4.03879 23.8407 3.64609 23.8847 3.74609ZM26.1367 12.4259C26.2747 12.4299 26.4747 12.4529 26.7397 12.4879C28.4186 12.7119 29.5776 13.3039 31.3846 14.8629C31.8566 15.2708 32.3026 15.6708 32.3766 15.7538C32.5196 15.9138 32.7006 16.9068 32.7926 18.0268C32.8216 18.3838 32.8776 18.6508 32.9176 18.6268C32.9566 18.6028 33.0726 18.4158 33.1756 18.2128C33.2786 18.0088 33.4916 17.7178 33.6476 17.5658L33.7266 17.4898C33.7296 17.5598 33.7286 17.5828 33.7316 17.6538C36.0295 17.0548 34.0996 20.4238 33.4546 21.4388C33.0616 21.8618 32.9876 21.9988 32.6656 22.8848C31.4866 25.6127 30.0726 28.1647 27.4137 29.5857C24.6297 30.9236 22.4337 30.6277 20.3957 29.5817C18.0268 28.1917 16.1298 25.6887 15.0938 22.5838C14.9048 22.0178 14.8088 21.8478 14.5098 21.5508C13.3758 20.0948 12.4778 17.2118 14.4568 17.6908C14.4558 17.6678 14.4558 17.6508 14.4548 17.6268L14.4838 17.6558C14.7138 17.8918 14.9778 18.1908 15.0718 18.3198L15.2418 18.5548L15.2478 18.0758C15.2598 16.7138 15.7588 15.1378 16.5608 13.9319C16.8958 13.4259 16.9858 13.4139 17.9608 13.7579C19.5818 14.3299 20.9577 15.1758 22.5037 16.5508C23.1877 17.1588 23.2167 17.1418 23.2187 16.1268C23.2197 15.3508 23.0837 14.7629 22.7827 14.2419C22.6667 14.0399 22.6247 13.8979 22.6737 13.8669C22.7177 13.8399 22.9547 13.8749 23.2007 13.9449C24.8387 14.4109 26.2827 15.2378 27.7516 16.5528C28.0456 16.8158 28.3076 17.0308 28.3316 17.0308C28.4236 17.0308 28.3686 16.7698 28.1046 15.9548C27.7456 14.8449 27.2607 14.0389 26.4427 13.1909C25.8587 12.5859 25.7217 12.4139 26.1367 12.4259ZM20.3067 17.9358C19.7227 17.9348 19.2498 18.4068 19.2498 18.9898C19.2498 19.5728 19.7227 20.0458 20.3067 20.0448C20.8887 20.0448 21.3607 19.5728 21.3607 18.9898C21.3607 18.4078 20.8887 17.9358 20.3067 17.9358ZM27.7476 18.1148C27.1657 18.1148 26.6937 18.5878 26.6927 19.1698C26.6937 19.7518 27.1657 20.2238 27.7476 20.2248C28.3296 20.2238 28.8026 19.7518 28.8026 19.1698C28.8026 18.5878 28.3296 18.1148 27.7476 18.1148ZM20.5387 25.5917C20.5707 26.7687 22.1237 27.7127 24.0287 27.7127C25.9327 27.7117 27.4837 26.7677 27.5157 25.5917C24.7847 26.6187 22.5327 26.4337 20.5387 25.5917ZM13.4468 35.3456C12.6718 35.3456 12.0778 35.6026 11.6639 36.1166C11.2539 36.6316 11.0489 37.3856 11.0489 38.3786V39.6885C11.0589 40.6435 11.2689 41.3745 11.6799 41.8865C12.0898 42.3975 12.6818 42.6535 13.4568 42.6535C14.2418 42.6535 14.8388 42.3935 15.2458 41.8725C15.6528 41.3515 15.8548 40.5985 15.8548 39.6145V38.3066C15.8458 37.3516 15.6368 36.6206 15.2268 36.1126C14.8158 35.6016 14.2218 35.3456 13.4468 35.3456ZM8.60149 35.4336L5.65613 36.4876V37.6366L7.34171 37.1146V42.5565H8.75379V35.4336H8.60149ZM23.9793 35.4336L21.0343 36.4876V37.6366L22.7203 37.1146V42.5565H24.1303V35.4336H23.9793ZM27.0673 35.4426L26.6573 39.0585L27.7802 39.3375L27.9172 39.2105C28.1252 39.0345 28.3982 38.9445 28.7332 38.9445C29.0982 38.9445 29.3782 39.0545 29.5772 39.2695C29.7762 39.4835 29.8762 39.7925 29.8762 40.1965C29.8762 40.6165 29.7892 40.9425 29.6162 41.1735C29.4442 41.4015 29.1992 41.5155 28.8802 41.5155C28.5932 41.5155 28.3602 41.4335 28.1812 41.2705C28.0052 41.1045 27.9012 40.8735 27.8722 40.5775H26.4763C26.4893 40.9815 26.6023 41.3415 26.8133 41.6575C27.0283 41.9735 27.3183 42.2185 27.6872 42.3945C28.0552 42.5665 28.4542 42.6535 28.8842 42.6535C29.3762 42.6535 29.8022 42.5535 30.1632 42.3545C30.5252 42.1535 30.8032 41.8725 30.9952 41.5115C31.1902 41.1465 31.2882 40.7345 31.2882 40.2745C31.2882 39.5195 31.0962 38.9315 30.7122 38.5116C30.3282 38.0916 29.7962 37.8806 29.1182 37.8806C28.7402 37.8806 28.3832 37.9706 28.0482 38.1496L28.2242 36.6206H31.0542V35.4426H27.0673ZM31.7182 35.4426L34.0522 39.9765V42.5565H35.5421V39.9765L37.8781 35.4426H36.2741L34.7962 38.6476L33.3252 35.4426H31.7182ZM13.4464 36.4876C13.7884 36.4876 14.0414 36.6236 14.2004 36.8946C14.3634 37.1616 14.4444 37.5896 14.4444 38.1796V39.8685C14.4384 40.4255 14.3574 40.8385 14.2044 41.1085C14.0514 41.3795 13.8014 41.5155 13.4564 41.5155C13.1084 41.5155 12.8544 41.3755 12.6944 41.0955C12.5384 40.8115 12.4604 40.3795 12.4604 39.8005V38.0716C12.4704 37.5276 12.5544 37.1286 12.7104 36.8746C12.8704 36.6176 13.1144 36.4876 13.4464 36.4876ZM40.1791 37.1736C39.5501 37.1736 39.0401 37.3306 38.6491 37.6456C38.2621 37.9586 38.0671 38.3486 38.0671 38.8176C38.0671 39.6225 38.6971 40.1575 39.9541 40.4215C40.3321 40.4995 40.6051 40.5875 40.7741 40.6885C40.9471 40.7865 41.0341 40.9225 41.0341 41.0955C41.0341 41.2615 40.9631 41.3975 40.8231 41.5015C40.6861 41.6025 40.4821 41.6515 40.2121 41.6515C39.9221 41.6515 39.6911 41.5865 39.5191 41.4525C39.3461 41.3195 39.2541 41.1255 39.2411 40.8745H37.9011C37.9011 41.1935 37.9991 41.4925 38.1941 41.7695C38.3901 42.0425 38.6591 42.2595 39.0011 42.4195C39.3461 42.5755 39.7401 42.6535 40.1831 42.6535C40.8371 42.6535 41.3731 42.5045 41.7861 42.2085C42.2001 41.9085 42.4051 41.5185 42.4051 41.0365C42.4051 40.3625 42.0341 39.8885 41.2881 39.6145C41.0471 39.5265 40.7491 39.4485 40.3971 39.3805C40.0461 39.3085 39.7951 39.2245 39.6451 39.1305C39.4991 39.0325 39.4271 38.9055 39.4271 38.7495C39.4271 38.5836 39.4921 38.4466 39.6221 38.3396C39.7521 38.2316 39.9351 38.1796 40.1731 38.1796C40.4501 38.1796 40.6541 38.2446 40.7841 38.3786C40.9141 38.5086 40.9791 38.6746 40.9791 38.8765H42.3921C42.3921 38.3716 42.1901 37.9616 41.7861 37.6456C41.3861 37.3306 40.8501 37.1736 40.1791 37.1736ZM16.8664 38.9405V40.0795H19.6164V38.9405H16.8664Z" fill="#333333"/>
</svg>
